16x16/apps/org.gnome.design.BannerViewer.svg

<svg height="16" width="16" xmlns="http://www.w3.org/2000/svg"><path d="m16 4.455h-8.757l-1.061 1.054-.182 8.136c-.024 1.054.797 1.355 1.443 1.355h8.557l-1.061-5.536zm-16 0h4.287l.713 9.045c0 1.055-.545 1.5-1.181 1.5h-3.819l1.072-5.536z" fill="#a51822" fill-rule="evenodd"/><path d="m3.09 1c-.603 0-1.09.493-1.09 1.105v8.995h2.25v-.75l.75-.35h1.125l.75.35v.75h7.125v-8.995c0-.612-.486-1.105-1.09-1.105z" fill="#ed333b"/><path d="m8.917 5.016c-.173.13-.709-.44-.922-.44-.214-.002-.754.564-.926.431-.172-.131.18-.84.115-1.053s-.746-.577-.68-.789c.067-.211.821-.08.994-.21.173-.131.293-.921.507-.92.213 0 .326.792.498.923.172.132.927.007.993.22.065.213-.619.57-.686.782s.28.925.107 1.056zm-2.463 3.012c-.173.13-.709-.44-.922-.441-.214-.001-.754.564-.927.432-.171-.131.181-.841.115-1.054-.065-.212-.745-.575-.678-.788.066-.212.82-.08.993-.21.173-.131.293-.921.507-.92.213.001.326.791.498.923.173.133.928.008.993.22.065.213-.619.57-.686.782-.066.212.28.925.107 1.056zm4.926 0c-.174.13-.71-.44-.923-.441s-.754.564-.927.432c-.171-.131.181-.841.116-1.054-.065-.212-.746-.575-.68-.788.067-.212.821-.08.994-.21.173-.131.293-.921.507-.92.213.001.326.791.499.923.172.133.926.008.992.22.065.213-.619.57-.686.782-.066.212.28.925.107 1.056zm0 0" fill="#f4f4f7"/><g fill="#ccc"><path d="m6.025 9.988v3.112c0-.607.442-1.1 1.05-1.1h5.838s1.087.1 1.087-1c0-.61-.478-1.012-1.087-1.012h-5.838z" fill-rule="evenodd"/><path d="m3.087 9.988c-.607 0-1.087.405-1.087 1.012s.48 1 1.087 1h.788c.687 0 1.125.716 1.125 1.277v-3.29z"/></g></svg>

<svg height="16" width="16" xmlns="http://www.w3.org/2000/svg">
    <path d="M16 4.455H7.243L6.182 5.509 6 13.645C5.976 14.699 6.797 15 7.443 15H16l-1.061-5.536zm-16 0h4.287L5 13.5c0 1.055-.545 1.5-1.181 1.5H0l1.072-5.536z" fill="#a51822" fill-rule="evenodd"/>
    <path d="M3.09 1C2.487 1 2 1.493 2 2.105V11.1h2.25v-.75L5 10h1.125l.75.35v.75H14V2.105C14 1.493 13.514 1 12.91 1z" fill="#ed333b"/>
    <path d="M8.917 5.016c-.173.13-.709-.44-.922-.44-.214-.002-.754.564-.926.431-.172-.131.18-.84.115-1.053s-.746-.577-.68-.789c.067-.211.821-.08.994-.21.173-.131.293-.921.507-.92.213 0 .326.792.498.923.172.132.927.007.993.22.065.213-.619.57-.686.782s.28.925.107 1.056zM6.454 8.028c-.173.13-.709-.44-.922-.441-.214-.001-.754.564-.927.432-.171-.131.181-.841.115-1.054-.065-.212-.745-.575-.678-.788.066-.212.82-.08.993-.21.173-.131.293-.921.507-.92.213.001.326.791.498.923.173.133.928.008.993.22.065.213-.619.57-.686.782-.066.212.28.925.107 1.056zm4.926 0c-.174.13-.71-.44-.923-.441s-.754.564-.927.432c-.171-.131.181-.841.116-1.054-.065-.212-.746-.575-.68-.788.067-.212.821-.08.994-.21.173-.131.293-.921.507-.92.213.001.326.791.499.923.172.133.926.008.992.22.065.213-.619.57-.686.782-.066.212.28.925.107 1.056zm0 0" fill="#f4f4f7"/>
    <g fill="#ccc">
        <path d="M6.025 9.988V13.1c0-.607.442-1.1 1.05-1.1h5.838S14 12.1 14 11c0-.61-.478-1.012-1.087-1.012H7.075z" fill-rule="evenodd"/>
        <path d="M3.087 9.988C2.48 9.988 2 10.393 2 11s.48 1 1.087 1h.788C4.562 12 5 12.716 5 13.277v-3.29z"/>
    </g>
</svg>
